X:1
T:Title
%%score { ( 1 3 ) | 2 }
L:1/8
M:4/4
K:Db
V:1 treble nm="Grand Piano"
V:3 treble 
V:2 bass 
V:1
 z4 z2[Q:1/4=100] [FA]2 | [Fd]3 [Fc] [FB][Fc] [FB]>F | G6 G2 | [Ec]3 [GB] [FA][GB][DF][CGB] | %4
[M:3/4] [DFA]6 |[M:1/4] [A,DF]2 |[M:4/4] [A,EG]3 [CEA] [CGB][EGc] [CGe]>[CGe] | [Fd]6 [Fd]2 | %8
 cdcd c2 B2 |[M:3/4] [A,CA]6 |[M:1/4] A2 |[M:4/4] A3 A A2 A2 | c2 d2 e2 A2 | A3 A A2 [GA]2 | %14
 [Fd]2 [Ge]2 [Af]2 [GA]2 | [Af]3 [Fd] [Ge][Fd][FA][A_c] | [GB]6 z2 | A[Ad][Ge][Ge] d2 c-[Gc] | %18
[M:3/4] [Fd]6 |] %19
V:2
 z4 z2 [D,D]2 | [D,A,]3 [D,A,] [D,D][D,D] [D,D]>[D,A,D] | [E,A,C]6 [E,A,C]2 | %3
 [A,,A,]3 [A,,A,] [A,,A,][A,,A,][A,,A,]A,, |[M:3/4] D,6 |[M:1/4] D,2 | %6
[M:4/4] A,,3 A,, A,,A,, A,,>A,, | [D,A,]6 [D,A,]2 | %8
 [E,A,E][E,B,E][E,A,E][E,B,E] [E,A,E]2 [E,=G,D]2 |[M:3/4] A,,6 |[M:1/4] A,2 | %11
[M:4/4] A,3 A, A,2 A,2 | [A,EG]2 [A,DF]2 [A,CG]2 [A,CE]2 | A,3[K:bass] [G,A,] [F,A,]2 [E,C]2 | %14
 [D,A,]2 [D,A,]2 [D,D]2 [A,C]2 | [D,D]3 [D,A,] [D,A,][D,A,][D,D][F,D] | %16
 [G,D]G,G,G, G,2[K:treble] [G,DG]2 | [A,DF][K:bass][F,_C][G,B,][E,B,] [A,F]2 [A,,A,]2 | %18
[M:3/4] [D,A,]6 |] %19
V:3
 x8 | x8 | x8 | x8 |[M:3/4] x6 |[M:1/4] x2 |[M:4/4] x8 | x8 | x8 |[M:3/4] x6 |[M:1/4] x2 | %11
[M:4/4] x8 | x8 | x8 | x8 | x8 | z DDD D2 B2 | z4 z2 .E2 |[M:3/4] x6 |] %19

